packages/dnb-eufemia/assets/icons/cloud.svg

<svg width="16" height="16" viewBox="0 0 16 16" fill="none" xmlns="http://www.w3.org/2000/svg">
<path d="M12.2866 8.34134L11.5438 8.23792C11.5124 8.46341 11.5851 8.69095 11.7415 8.85643C11.8978 9.02191 12.1209 9.10741 12.3478 9.08884L12.2866 8.34134ZM5.32906 8.08735C5.68285 8.30276 6.14429 8.19058 6.3597 7.83679C6.57511 7.483 6.46294 7.02156 6.10914 6.80615L5.32906 8.08735ZM4.14607 12.9167C2.86302 12.9167 1.75 11.8015 1.75 10.3333H0.25C0.25 12.547 1.95406 14.4167 4.14607 14.4167V12.9167ZM14.25 11C14.25 12.1 13.4187 12.9167 12.4831 12.9167V14.4167C14.3276 14.4167 15.75 12.8455 15.75 11H14.25ZM4.14607 14.4167H12.4831V12.9167H4.14607V14.4167ZM1.75 10.3333C1.75 9.03936 2.62182 8.01034 3.70581 7.79342L3.41148 6.32258C1.58189 6.68869 0.25 8.37082 0.25 10.3333H1.75ZM4.3043 7.13858C4.53317 5.02064 6.30452 3.75 7.92135 3.75V2.25C5.59177 2.25 3.12975 4.04603 2.81298 6.97743L4.3043 7.13858ZM7.92135 3.75C10.2939 3.75 11.8497 6.04058 11.5438 8.23792L13.0295 8.44476C13.4312 5.55942 11.408 2.25 7.92135 2.25V3.75ZM12.3478 9.08884C13.3072 9.01034 14.25 9.85904 14.25 11H15.75C15.75 9.07154 14.145 7.43677 12.2255 7.59384L12.3478 9.08884ZM3.70581 7.79342C4.25456 7.68361 4.8379 7.78829 5.32906 8.08735L6.10914 6.80615C5.30387 6.31584 4.33803 6.13718 3.41148 6.32258L3.70581 7.79342Z" fill="black"/>
</svg>

<svg width="16" height="16" viewBox="0 0 16 16" fill="none" xmlns="http://www.w3.org/2000/svg"><path d="m12.287 8.341-.743-.103a.75.75 0 0 0 .804.85l-.061-.747Zm-6.958-.254a.75.75 0 0 0 .78-1.28l-.78 1.28Zm-1.183 4.83c-1.283 0-2.396-1.115-2.396-2.584H.25c0 2.214 1.704 4.084 3.896 4.084v-1.5ZM14.25 11c0 1.1-.831 1.917-1.767 1.917v1.5c1.845 0 3.267-1.572 3.267-3.417h-1.5ZM4.146 14.417h8.337v-1.5H4.146v1.5ZM1.75 10.333c0-1.294.872-2.323 1.956-2.54l-.294-1.47C1.582 6.689.25 8.37.25 10.333h1.5ZM4.304 7.14c.23-2.118 2-3.389 3.617-3.389v-1.5c-2.33 0-4.791 1.796-5.108 4.727l1.491.162Zm3.617-3.39c2.373 0 3.929 2.29 3.623 4.488l1.486.207c.4-2.886-1.622-6.195-5.11-6.195v1.5Zm4.427 5.339c.96-.079 1.902.77 1.902 1.911h1.5c0-1.928-1.605-3.563-3.524-3.406l.122 1.495ZM3.706 7.793a2.276 2.276 0 0 1 1.623.294l.78-1.28a3.776 3.776 0 0 0-2.697-.484l.294 1.47Z" fill="#000"/></svg>
